svgs/sharp-light/utility-pole-double.svg

<svg xmlns="http://www.w3.org/2000/svg" viewBox="0 0 512 512"><!--! Font Awesome Pro 6.4.0 by @fontawesome - https://fontawesome.com License - https://fontawesome.com/license (Commercial License) Copyright 2023 Fonticons, Inc. --><path d="M208 0h16 64 16V16 96h80V48 32h32V48 96h64V48 32h32V48v64 16H496 437.5L304 231.8V288h80V240 224h32v16 48h64V240 224h32v16 64 16H496 437.5L304 423.8V496v16H272V496 320H240V496v16H208V496 423.8L74.5 320H16 0V304 240 224H32v16 48H96V240 224h32v16 48h80V231.8L74.5 128H16 0V112 48 32H32V48 96H96V48 32h32V48 96h80V16 0zM126.6 128L208 191.3V128H126.6zm0 192L208 383.3V320H126.6zM304 383.3L385.4 320H304v63.3zm0-192L385.4 128H304v63.3zM272 32H240V96h32V32zM240 288h32V128H240V288z"/></svg>

<svg xmlns="http://www.w3.org/2000/svg" viewBox="0 0 512 512"><!--! Font Awesome Pro 6.6.0 by @fontawesome - https://fontawesome.com License - https://fontawesome.com/license (Commercial License) Copyright 2024 Fonticons, Inc. --><path d="M208 0l16 0 64 0 16 0 0 16 0 80 80 0 0-48 0-16 32 0 0 16 0 48 64 0 0-48 0-16 32 0 0 16 0 64 0 16-16 0-58.5 0L304 231.8l0 56.2 80 0 0-48 0-16 32 0 0 16 0 48 64 0 0-48 0-16 32 0 0 16 0 64 0 16-16 0-58.5 0L304 423.8l0 72.2 0 16-32 0 0-16 0-176-32 0 0 176 0 16-32 0 0-16 0-72.2L74.5 320 16 320 0 320l0-16 0-64 0-16 32 0 0 16 0 48 64 0 0-48 0-16 32 0 0 16 0 48 80 0 0-56.2L74.5 128 16 128 0 128l0-16L0 48 0 32l32 0 0 16 0 48 64 0 0-48 0-16 32 0 0 16 0 48 80 0 0-80 0-16zM126.6 128L208 191.3l0-63.3-81.4 0zm0 192L208 383.3l0-63.3-81.4 0zM304 383.3L385.4 320 304 320l0 63.3zm0-192L385.4 128 304 128l0 63.3zM272 32l-32 0 0 64 32 0 0-64zM240 288l32 0 0-160-32 0 0 160z"/></svg>
